X:140
T:Jesus Sinners Doth Receive
%%stretchlast false
M:none
L:1/4
K:F clef=C1
"^I"[FAcf] "^♭v°¹"[DF=Bf] "^V"[CGce] "^I¹"[A,Acf] | "^IV"[B,FBd] "^vii°¹"[G,GBe] "^I"[F,Acf]2 | [Fca] [Fcfa] "^V¹"[Ecg] "^I"[FAfc'] | "^ii"[GBdb]/ [GBeb]/ "^I"[Fcfa] [Ccfg] "^V"[Cceg] | "^I"[F,Af]2 [FAcf] "^♭v°¹"[DF=Bf] | "^V"[CGce] "^I¹"[A,Acf] "^IV"[B,FBd] "^vii°¹"[G,GBe] | "^I"[F,Acf]2 [Fca] [Fcfa] | "^V¹"[Ecg] "^I"[FAfc'] "^ii"[GBdb]/ [GBeb]/ "^I"[Fcfa] | [Ccfg] "^V"[Cceg] "^I"[F,Af]2 | [Fca] "^V¹"[EGcg] "^vi"[DAdf] "^V¹"[EGcg] | "^I"[Fca] "^I¹"[A,Fca]/ "^I"[B,Fca]/ "^V"[CEcg]2 | "^I"[Fcfa] [F,Afc'] "^ii"[G,Bdb]/ [G,Beb]/ "^I¹"[A,cfa] | "^ii7¹"[B,dfg] "^V"[Cceg] "^I"[F,Af]2 |]
